X: 27091
T: Miss Laidler's
R: reel
M: 4/4
K: Eminor
E|D~E3 D~E3|EDB,E DEGF|D~E3 ~B3d|efge dBAF|
D~E3 BEGB|dBGB AFDF|EGBg edBG|D(E{G}E)D ~E3:|
d|Be e/e/e BdAF|DEFD EDB,D|~E2GE FGAF|GBdg edBG|
D~E3 B~E3|dBGB AFDF|EGBg edBG D(E{G}E)D ~E3:|

